build/finance/CVVSolid.svg

<svg xmlns="http://www.w3.org/2000/svg" fill="none" viewBox="0 0 24 24" focusable="false"><path d="M0 0H24V24H0z"/><path fill="#74767B" fill-rule="evenodd" d="M3.02801 7.58793C2.97539 7.97093 3.31334 8.28958 3.69994 8.28958L20.3651 8.28958C20.7157 8.28958 21.0202 8.00377 20.9804 7.65543C20.8209 6.26134 19.706 5.15759 18.3067 5.01549C18.2058 5.00525 18.1035 5 17.9999 5L5.99994 5C4.48288 5 3.22883 6.12605 3.02801 7.58793ZM3 10.2705C3 9.8839 3.3134 9.5705 3.7 9.5705L20.3 9.5705C20.6866 9.5705 21 9.8839 21 10.2705L21 16C21 17.6568 19.6569 19 18 19L6 19C4.34315 19 3 17.6568 3 16L3 10.2705ZM10.92 12.0362C10.5181 12.0362 10.2116 12.3957 10.2751 12.7925L10.6694 15.2578C10.7735 15.9088 11.3351 16.3877 11.9944 16.3877C12.6521 16.3877 13.2129 15.911 13.3188 15.2618L13.7211 12.7945C13.7859 12.3971 13.4792 12.0362 13.0765 12.0362C12.7592 12.0362 12.4877 12.2643 12.4331 12.5769L12.0935 14.5208C12.0742 14.631 11.916 14.6308 11.897 14.5205L11.5638 12.5789C11.51 12.2654 11.2381 12.0362 10.92 12.0362ZM14.8688 12.7925C14.8053 12.3957 15.1119 12.0362 15.5138 12.0362C15.8319 12.0362 16.1037 12.2654 16.1575 12.5789L16.4908 14.5205C16.5097 14.6308 16.668 14.631 16.6872 14.5208L17.0269 12.5769C17.0815 12.2643 17.3529 12.0362 17.6703 12.0362C18.0729 12.0362 18.3797 12.3971 18.3149 12.7945L17.9125 15.2618C17.8067 15.911 17.2459 16.3877 16.5882 16.3877C15.9289 16.3877 15.3673 15.9088 15.2632 15.2578L14.8688 12.7925ZM7.61581 13.1562C7.39137 13.1562 6.97639 13.4441 6.97639 14.1206C6.97639 14.7971 7.39137 15.0849 7.61581 15.0849C7.73711 15.0849 7.88142 15.026 8.01413 14.8633C8.24106 14.5852 8.65052 14.5436 8.92868 14.7706C9.20683 14.9975 9.24836 15.407 9.02143 15.6851C8.68908 16.0925 8.19673 16.3849 7.61581 16.3849C6.416 16.3849 5.67639 15.2272 5.67639 14.1206C5.67639 13.0139 6.416 11.8562 7.61581 11.8562C8.15167 11.8562 8.61427 12.1059 8.94308 12.4653C9.18538 12.7302 9.16708 13.1413 8.9022 13.3836C8.63733 13.626 8.22618 13.6077 7.98387 13.3428C7.85939 13.2067 7.72897 13.1562 7.61581 13.1562Z"/></svg>

<svg xmlns="http://www.w3.org/2000/svg" fill="none" viewBox="0 0 24 24" focusable="false"><path fill="#74767B" fill-rule="evenodd" d="M3.02 7.58c-.05.39.29.7.67.7h16.67c.35 0 .66-.28.62-.63a3.01 3.01 0 0 0-2.68-2.64C18.2 5 18.1 5 17.99 5h-12C4.48 5 3.22 6.12 3.02 7.58M3 10.27c0-.39.31-.7.7-.7h16.59c.39 0 .71.31.71.7V16c0 1.65-1.35 3-3 3H6c-1.66 0-3-1.35-3-3zm7.92 1.76c-.41 0-.71.36-.65.76l.39 2.46c.11.65.67 1.13 1.33 1.13s1.22-.47 1.32-1.12l.41-2.47c.06-.4-.25-.76-.65-.76-.32 0-.59.23-.64.54l-.34 1.95c-.02.11-.18.11-.2 0l-.33-1.95a.66.66 0 0 0-.64-.54m3.94.76c-.06-.4.25-.76.65-.76.32 0 .59.23.64.54l.34 1.95c.01.11.17.11.19 0l.34-1.95c.06-.31.33-.54.65-.54.4 0 .7.36.64.76l-.4 2.47a1.343 1.343 0 0 1-2.65-.01zm-7.25.36c-.22 0-.64.29-.64.97 0 .67.42.96.64.96.12 0 .27-.06.4-.22a.64.64 0 0 1 .91-.09c.28.22.32.63.1.91-.34.41-.83.7-1.41.7-1.2 0-1.94-1.16-1.94-2.26 0-1.11.74-2.27 1.94-2.27.54 0 1 .25 1.33.61.24.27.22.68-.04.92-.27.24-.68.22-.92-.04-.13-.14-.26-.19-.37-.19"/></svg>
